X: 38
T: Missa Fors seulement / Kyrie
N: Derived from Ock1007a-Missa_Fors_seulement-Kyrie.krn
C: Johannes Ockeghem
%%abc-version 2.0
%%abcx-abcm2ps-target-version 5.9.1 (29 Sep 2008)
%%abc-creator hum2abc beta
%%abcx-conversion-date 2019/02/17 07:26:14
%%abc-edited-by Jesse Rodin
%%abc-edited-by Chris Gage 06-28-2012
%%abcx-initial-encoding-date 2012/08/16/
%%humdrum-veritas 3254079187
%%humdrum-veritas-data 3232624264
%%linebreak <none>
%%barnumbers 0
L: 1/4
M: 4/2
Q: 1/2=120
V: 1 clef=treble
V: 2 clef=treble-8
V: 3 clef=treble-8
V: 4 clef=bass
V: 5 clef=bass
K: C
[V:1] z8 | 
[V:2] d8 | 
[V:3] z8 | 
[V:4] D,8 | 
[V:5] z8 | 
[V:1] A8 | 
[V:2] d4d4 | 
[V:3] z8 | 
[V:4] D,4D,4 | 
[V:5] z8 | 
[V:1] A4A4 | 
[V:2] d6cB | 
[V:3] z8 | 
[V:4] D,8 | 
[V:5] z8 | 
[V:1] A6GF | 
[V:2] A4A4 | 
[V:3] z8 | 
[V:4] F,8 | 
[V:5] z8 | 
[V:1] E4E4 | 
[V:2] c8 | 
[V:3] z8 | 
[V:4] A,8 | 
[V:5] z8 | 
[V:1] G8 | 
[V:2] _B6G2 | 
[V:3] z8 | 
[V:4] G,6E,2 | 
[V:5] z8 | 
[V:1] F6ED | 
[V:2] _B4A4- | 
[V:3] z8 | 
[V:4] D,6C,B,, | 
[V:5] z8 | 
[V:1] F4E4- | 
[V:2] A2G2G4- | 
[V:3] z8 | 
[V:4] A,,4C,4- | 
[V:5] z8 | 
[V:1] E2D2D4- | 
[V:2] G4F4 | 
[V:3] z8 | 
[V:4] C,4D,4 | 
[V:5] z8 | 
[V:1] D4^C4 | 
[V:2] G8 | 
[V:3] z8 | 
[V:4] E,8 | 
[V:5] z8 | 
[V:1] D4z2D2 | 
[V:2] A4F4 | 
[V:3] A8 | 
[V:4] D,3C,/B,,/A,,4 | 
[V:5] D,,4F,,3E,,/D,,/ | 
[V:1] E2F2E2F2- | 
[V:2] E2D2z2D2 | 
[V:3] A4A4 | 
[V:4] z4A,,4 | 
[V:5] C,,2D,,2C,,2D,,2- | 
[V:1] FDC2D2B,2 | 
[V:2] F4A2B2 | 
[V:3] A6GF | 
[V:4] A,,4D,4 | 
[V:5] D,,2F,,4G,,2 | 
[V:1] A,4z2A2 | 
[V:2] c6A2 | 
[V:3] E4z4 | 
[V:4] C,2A,,2C,3D, | 
[V:5] A,,B,,C,D,E,A,,2G,,/F,,/ | 
[V:1] G2E4F2 | 
[V:2] z2B2c4 | 
[V:3] G4A4 | 
[V:4] E,6C,2 | 
[V:5] E,,4A,,4 | 
[V:1] G2D2E4 | 
[V:2] dcBAG4 | 
[V:3] B4c4 | 
[V:4] B,,2D,2z2G,,2 | 
[V:5] G,,4z2E,,2 | 
[V:1] F2G4E2 | 
[V:2] A2B4c2 | 
[V:3] d6c2 | 
[V:4] D,4B,,2A,,2 | 
[V:5] D,,2G,,4A,,2 | 
[V:1] D2E3CB,2 | 
[V:2] d2c3BG2 | 
[V:3] B2A2G4 | 
[V:4] D,2A,,2E,4 | 
[V:5] B,,2C,3D,E,2 | 
[V:1] A,4z4 | 
[V:2] A3FE2D2 | 
[V:3] z4A4 | 
[V:4] z2A,3G,F,2 | 
[V:5] F,3E,C,2D,2 | 
[V:1] A,4D2B,2 | 
[V:2] A6G2 | 
[V:3] F4D4 | 
[V:4] C,2F,4D,2 | 
[V:5] A,,2D,2z2B,,2 | 
[V:1] C2D2z2C2 | 
[V:2] A2B2A4- | 
[V:3] E8 | 
[V:4] C,2B,,2C,2A,,2- | 
[V:5] A,,2G,,2A,,4 | 
[V:1] D2F4E2 | 
[V:2] A4z2c2 | 
[V:3] D4A4 | 
[V:4] A,,2D,4C,2 | 
[V:5] D,,4z4 | 
[V:1] D2F2E2A2- | 
[V:2] B2d2c2A2 | 
[V:3] B4c4 | 
[V:4] D,4E,2F,2- | 
[V:5] D,,4A,,4 | 
[V:1] AGGFA4 | 
[V:2] z2d3ccB | 
[V:3] d4e4 | 
[V:4] F,2G,2z2C,2 | 
[V:5] _B,,4A,,4 | 
[V:1] D4A4- | 
[V:2] d8 | 
[V:3] g8 | 
[V:4] B,,2D,3C,A,,2 | 
[V:5] z4D,,4- | 
[V:1] A2F2G4- | 
[V:2] d4c4 | 
[V:3] f4e4 | 
[V:4] A,4G,3F, | 
[V:5] D,,4E,,4 | 
[V:1] G2F2D4 | 
[V:2] B8 | 
[V:3] d6cB | 
[V:4] D,4G,3F, | 
[V:5] G,,8 | 
[V:1] C3DE2F2 | 
[V:2] A8- | 
[V:3] c8- | 
[V:4] E,D,C,4D,2 | 
[V:5] A,,8- | 
[V:1] E8 ||  
[V:2] A8 ||  
[V:3] c8 ||  
[V:4] E,8 ||  
[V:5] A,,8 ||  
[V:1]  [K:C] [K:clef=treble][M:4/2]A4G2A2- | 
[V:2]  [K:C] [K:clef=treble-8][M:4/2]z8 | 
[V:3]  [K:C] [K:clef=treble-8][M:4/2]c3de2f2- | 
[V:4]  [K:C] [K:clef=bass][M:4/2]A,3B,C2F,2- | 
[V:5]  [K:C] [K:clef=bass][M:4/2]z8 | 
[V:1] A2GFE4 | 
[V:2] z8 | 
[V:3] f2d4^c2 | 
[V:4] F,2G,2A,4 | 
[V:5] z8 | 
[V:1] D4z4 | 
[V:2] A4_B2A2- | 
[V:3] d4z4 | 
[V:4] z2F,2G,2F,2 | 
[V:5] D,4G,,2D,2- | 
[V:1] z8 | 
[V:2] A2G2F2E2 | 
[V:3] z8 | 
[V:4] D,4C,4 | 
[V:5] D,C,B,,2A,,2C,2 | 
[V:1] z8 | 
[V:2] F4E4 | 
[V:3] z8 | 
[V:4] D,4A,,4 | 
[V:5] B,,A,,D,4^C,2 | 
[V:1] F4G2A2- | 
[V:2] D4z4 | 
[V:3] z4c4 | 
[V:4] A,3F,E,2F,2- | 
[V:5] D,4C,2A,,2 | 
[V:1] A2F2G3E | 
[V:2] A4c4 | 
[V:3] d4e4 | 
[V:4] F,D,F,2E,2C,2 | 
[V:5] D,4C,4 | 
[V:1] D2C2D4 | 
[V:2] z2c2_B4 | 
[V:3] f6ed | 
[V:4] D,2F,4G,2 | 
[V:5] _B,,2A,,2B,,2G,,2 | 
[V:1] z2F2G2F2- | 
[V:2] A4G2A2- | 
[V:3] c8 | 
[V:4] E,2A,,2z2A,,2- | 
[V:5] A,,2F,,2E,,2F,,2- | 
[V:1] F2EDC2F2- | 
[V:2] A2GFE2A2 | 
[V:3] c4c4 | 
[V:4] A,,2B,,2C,4 | 
[V:5] F,,2G,,2A,,4 | 
[V:1] F2D4G2- | 
[V:2] F2G3A_B2 | 
[V:3] d8 | 
[V:4] D,4G,4 | 
[V:5] _B,,4G,,4 | 
[V:1] GFEDC4 | 
[V:2] c3_B/A/G2A2- | 
[V:3] e8 | 
[V:4] C,4E,4 | 
[V:5] C,8 | 
[V:1] z2D2F2E2- | 
[V:2] A2GFA4 | 
[V:3] d4c4 | 
[V:4] F,2D,2z2A,,2 | 
[V:5] _B,,4A,,4 | 
[V:1] EFG4G2 | 
[V:2] z4e4 | 
[V:3] B8 | 
[V:4] B,,2G,,2B,,4 | 
[V:5] G,,2E,,4G,,2 | 
[V:1] A3GE2F2- | 
[V:2] f4e2d2 | 
[V:3] A8- | 
[V:4] C,2D,2C,2D,2- | 
[V:5] F,,2D,,2z2D,,2- | 
[V:1] F2E2D4 | 
[V:2] A2c2FGAB | 
[V:3] A8- | 
[V:4] D,2E,2F,4 | 
[V:5] D,,2C,,2D,,4 | 
[V:1] E8 ||  
[V:2] c8 ||  
[V:3] A8 ||  
[V:4] E,8 ||  
[V:5] A,,8 ||  
[V:1]  [K:C] [K:clef=treble][M:4/2]z8 | 
[V:2]  [K:C] [K:clef=treble-8][M:4/2]A8 | 
[V:3]  [K:C] [K:clef=treble-8][M:4/2]z8 | 
[V:4]  [K:C] [K:clef=bass][M:4/2]F,8 | 
[V:5]  [K:C] [K:clef=bass][M:4/2]F,,3G,,A,,2B,,2 | 
[V:1] z8 | 
[V:2] G4F4 | 
[V:3] z8 | 
[V:4] E,4D,4 | 
[V:5] C,4D,4 | 
[V:1] z8 | 
[V:2] E3FG2A2 | 
[V:3] z8 | 
[V:4] C,4z2C,2 | 
[V:5] A,,4B,,2A,,2 | 
[V:1] z8 | 
[V:2] B2c4A2 | 
[V:3] z8 | 
[V:4] D,2E,2F,3E, | 
[V:5] G,,2C,2z2F,,2 | 
[V:1] z8 | 
[V:2] _BAGFE3D | 
[V:3] z8 | 
[V:4] D,C,C,4B,,2 | 
[V:5] E,,2F,,2G,,4 | 
[V:1] A4G2A2- | 
[V:2] F4G2F2 | 
[V:3] c8 | 
[V:4] C,3D,E,2F,2- | 
[V:5] F,,4z4 | 
[V:1] AGFEF4 | 
[V:2] A4z2_B2 | 
[V:3] d4d4 | 
[V:4] F,E,D,C,_B,,4 | 
[V:5] z8 | 
[V:1] E4F4 | 
[V:2] A2c4_BA | 
[V:3] c4A4 | 
[V:4] C,4z2F,2 | 
[V:5] C,4F,,4 | 
[V:1] D2G4FE | 
[V:2] G8 | 
[V:3] _B8 | 
[V:4] _B,,3C,D,2E,2 | 
[V:5] G,,8 | 
[V:1] D2C4F2 | 
[V:2] A8 | 
[V:3] A4F4 | 
[V:4] F,3E,/D,/C,4 | 
[V:5] F,,4A,,4 | 
[V:1] E2D4CB, | 
[V:2] _B6G2 | 
[V:3] G8 | 
[V:4] z2D,4E,2 | 
[V:5] G,,8 | 
[V:1] D3CA,4 | 
[V:2] A4F2c2- | 
[V:3] F6ED | 
[V:4] F,4z2A,2- | 
[V:5] z2D,4C,B,, | 
[V:1] z2E4F2 | 
[V:2] c2BAG2A2 | 
[V:3] C4z4 | 
[V:4] A,2G,F,E,2C,2 | 
[V:5] A,,3B,,C,4 | 
[V:1] G4A4 | 
[V:2] G4F4 | 
[V:3] c8 | 
[V:4] E,4F,3E,/D,/ | 
[V:5] C,4F,,4 | 
[V:1] F3DC2D2- | 
[V:2] F3GA2D2- | 
[V:3] A8 | 
[V:4] C,4F,3D, | 
[V:5] F,,6_B,,2- | 
[V:1] D2C2F3G | 
[V:2] D2A4_B2 | 
[V:3] F8 | 
[V:4] D,2A,,2D,4 | 
[V:5] B,,2C,2D,4 | 
[V:1] A3G/F/E2A2 | 
[V:2] A4c2A2 | 
[V:3] E6F2 | 
[V:4] C,4z4 | 
[V:5] A,,8 | 
[V:1] z2G2F2E2- | 
[V:2] d4c4- | 
[V:3] G4A4 | 
[V:4] D,4F,2C,2 | 
[V:5] _B,,4F,,2C,2- | 
[V:1] EDD4^C2 | 
[V:2] c2A2B2c2 | 
[V:3] G2F2E4 | 
[V:4] z2D,2B,,2A,,2 | 
[V:5] C,2F,,2G,,2A,,2 | 
[V:1] D8 | 
[V:2] F3GA2z2 | 
[V:3] z4D4- | 
[V:4] D,4A,,2_B,,2- | 
[V:5] _B,,3A,,F,,2G,,2- | 
[V:1] z2D3CB,A, | 
[V:2] G2A3GFE | 
[V:3] D4F4- | 
[V:4] B,,2A,,2D,4 | 
[V:5] G,,2F,,2D,,4 | 
[V:1] B,4C4 | 
[V:2] D4E3F | 
[V:3] F2G2A4 | 
[V:4] B,,4A,,2C,2 | 
[V:5] z4A,,4 | 
[V:1] z2B,2A,4 | 
[V:2] G4E2F2- | 
[V:3] B4c4- | 
[V:4] D,2E,3D,C,B,, | 
[V:5] G,,4A,,4 | 
[V:1] C2D2B,2E2- | 
[V:2] F2D2E4- | 
[V:3] c2B2G4- | 
[V:4] A,,2z2B,,4 | 
[V:5] F,,4E,,4 | 
[V:1] E2F2G2E2 | 
[V:2] E2C2G4 | 
[V:3] G2A2B2c2 | 
[V:4] C,2A,,2E,4 | 
[V:5] z4E,,4 | 
[V:1] F6E2 | 
[V:2] A4D2G2 | 
[V:3] d6cB | 
[V:4] z2A,,2B,,2C,2 | 
[V:5] D,,6E,,2 | 
[V:1] D4C2E2- | 
[V:2] F2D2A4 | 
[V:3] A2G2c4 | 
[V:4] D,2B,,2A,,2C,2 | 
[V:5] F,,2G,,2z2A,,2 | 
[V:1] E2C2B,4 | 
[V:2] G2F2D4 | 
[V:3] B2A4^G2 | 
[V:4] G,,2A,,2B,,3G,, | 
[V:5] E,,2F,,2G,,4 | 
[V:1] A,8- | 
[V:2] F8 | 
[V:3] A8- | 
[V:4] D,8 | 
[V:5] D,,8 | 
[V:1] A,8 |]  
[V:2] E8 |]  
[V:3] A8 |]  
[V:4] ^C,8 |]  
[V:5] A,,8 |]  



